svgs/thin/mandolin.svg

<svg xmlns="http://www.w3.org/2000/svg" viewBox="0 0 512 512"><!--! Font Awesome Pro 6.0.0-alpha3 by @fontawesome - https://fontawesome.com License - https://fontawesome.com/license (Commercial License) --><path d="M327.4 255.1c-4.331 0-7.846 3.507-7.975 7.836c-4.367 147.3-45.59 188.3-59.82 202.4l-1.422 1.422c-44.28 44.27-143.2 35.44-196.2-17.5c-52.85-52.99-61.68-152-16.09-197.6c14.07-14.22 55.2-55.36 202.3-59.76c4.328-.1299 7.834-3.645 7.834-7.975c0-4.502-3.777-8.16-8.278-8.029C94.42 181.2 51.23 224.4 33.19 242.6c-50.73 50.75-42.06 159.1 17.5 218.9c33.1 33.12 81.24 50.52 126.4 50.52c36.21 0 70.54-11.16 93.72-34.37c16.99-16.81 60.12-59.81 64.56-213.4C335.5 259.8 331.9 255.1 327.4 255.1zM208.1 248c-30.87 0-55.99 25.13-55.99 56.02s25.12 56 55.99 56c30.87 0 55.99-25.12 55.99-56S238.9 248 208.1 248zM208.1 344.1c-22.06 0-39.99-17.95-39.99-39.1c0-22.07 17.94-40.01 39.99-40.01c22.06 0 39.99 17.94 39.99 40.01C248.1 326.1 230.1 344.1 208.1 344.1zM505.5 47.07l-40.63-40.64c-7.234-7.234-18.45-8.547-27.5-3l-65.73 43.45c-2.031 1.344-3.342 3.531-3.561 5.969l-7.744 87.57l-93.93 93.97c-3.125 3.129-3.125 8.191 0 11.32c1.562 1.562 3.609 2.344 5.656 2.344c2.045 0 4.092-.7813 5.654-2.344l93.93-93.98l87.56-7.742c2.438-.2187 4.625-1.531 5.969-3.562l43.43-65.88C514.1 65.71 512.8 54.41 505.5 47.07zM495.1 65.89l-41.2 62.5l-77.1 6.816l6.811-77.11l62.27-41.17c2.453-1.547 5.625-1.172 7.607 .8125l40.63 40.64C496.2 60.46 496.6 63.54 495.1 65.89z"/></svg>

<svg xmlns="http://www.w3.org/2000/svg" viewBox="0 0 512 512"><!-- Font Awesome Pro 6.0.0-alpha2 by @fontawesome - https://fontawesome.com License - https://fontawesome.com/license (Commercial License) --><path d="M327.369 256C323.038 256 319.523 259.506 319.394 263.836C315.028 411.103 273.803 452.175 259.577 466.25L258.156 467.671C213.88 511.937 114.925 503.109 61.995 450.168C9.144 397.179 0.316 298.164 45.904 252.523C59.975 238.303 101.102 197.162 248.165 192.759C252.493 192.629 255.999 189.115 255.999 184.785V184.773C255.999 180.271 252.222 176.625 247.721 176.755C94.416 181.236 51.234 224.386 33.187 242.632C-17.54 293.382 -8.87 401.777 50.685 461.484C83.788 494.601 131.923 512 177.105 512C213.318 512 247.64 500.839 270.825 477.628C287.813 460.821 330.948 417.822 335.386 264.275C335.516 259.775 331.87 256 327.369 256ZM208.068 248.039C177.199 248.039 152.075 273.171 152.075 304.058S177.199 360.062 208.068 360.062C238.939 360.062 264.06 334.945 264.06 304.058S238.939 248.039 208.068 248.039ZM208.068 344.054C186.009 344.054 168.074 326.109 168.074 304.058C168.074 281.988 186.009 264.046 208.068 264.046C230.128 264.046 248.062 281.988 248.062 304.058C248.062 326.109 230.128 344.054 208.068 344.054ZM505.48 47.07L464.845 6.429C457.611 -0.805 446.394 -2.118 437.349 3.429L371.622 46.882C369.591 48.226 368.281 50.414 368.062 52.851L360.318 140.421L266.388 234.394C263.263 237.523 263.263 242.586 266.388 245.711C267.95 247.273 269.997 248.054 272.044 248.054C274.089 248.054 276.136 247.273 277.699 245.711L371.628 151.734L459.189 143.992C461.626 143.773 463.814 142.461 465.158 140.429L508.587 74.546C514.103 65.714 512.837 54.414 505.48 47.07ZM495.136 65.886L453.939 128.39L376.841 135.207L383.652 58.101L445.925 16.933C448.378 15.386 451.55 15.761 453.533 17.746L494.167 58.382C496.245 60.464 496.589 63.543 495.136 65.886Z"/></svg>
